assets/icons/qvision/video_call.svg

<svg xmlns="http://www.w3.org/2000/svg" height="24" viewBox="0 0 24 24" width="24"><path d="M0 0h24v24H0V0z" fill="none"/><path d="M17 10.5V7c0-.55-.45-1-1-1H4c-.55 0-1 .45-1 1v10c0 .55.45 1 1 1h12c.55 0 1-.45 1-1v-3.5l4 4v-11l-4 4zM14 13h-3v3H9v-3H6v-2h3V8h2v3h3v2z"/></svg>

<svg width="24" height="24" viewBox="0 0 24 24" fill="none" xmlns="http://www.w3.org/2000/svg">
<g clip-path="url(#clip0_147_1685)">
<path d="M17 10.5V7C17 6.45 16.55 6 16 6H4C3.45 6 3 6.45 3 7V17C3 17.55 3.45 18 4 18H16C16.55 18 17 17.55 17 17V13.5L21 17.5V6.5L17 10.5ZM14 13H11V16H9V13H6V11H9V8H11V11H14V13Z" fill="#323232"/>
</g>
<defs>
<clipPath id="clip0_147_1685">
<rect width="24" height="24" fill="white"/>
</clipPath>
</defs>
</svg>
